X:1
T:G major Daniel Belknap, 1802
T:Isaac Watts, 1709 (Hymn 23, Book 2) Revised ("Adapted") by Jeremy Belknap, 1795     88. 88. (L. M.)
T:Sandy River
T:Transcribed from Daniel Belknap's The Village Compilation, 1806.
%%score [ 1 2 3 ]
L:1/8
Q:1/4=120
M:3/4
K:G
V:1 treble nm="Tr." snm="Tr."
V:2 treble-8 nm="T." snm="T."
V:3 bass nm="B." snm="B."
V:1
 B2 B2 A2 | (A2 G2) B2 | (B2 A2) G2 | (G2 F2) z2 | d2 d2 B2 | (d2 B2) d2 | (cA d2) c2 | B4 G2 | %8
w: 1.~De- scend, ye|hosts * of|an- * gels|bright,~ _|And bear me|on * your|guar- * * dian|wings; Through|
[M:2/4] BB BB | BB Bd | dB Be | d2 d2 | d4 | z2 z d | B2 c2 | d3 e | dc BA | B3 d | ed ef | g3 B | %20
w: re- gions of ce-|les- tial light, A-|bove the reach of|ear- thly|things.|Be-|yond the|cur- tain|of * the *|sky, Up|where * e- *|ter- nal|
 cB cd | e3 B | dc Bc | d3 g | fe dc | B3 c | dB gf | e3 d/B/ | d2 c2 | B3 A | B>c Bd | %31
w: a- * ges *|roll! Where|so- * * lid|plea- sures|ne- * * ver|die, And|fruits * im- *|mor- tal *|feast the|soul, And|fruits * * im-|
 c/B/c/d/ eg | d2 d2 | B4 |] %34
w: mor- * * * * tal|feast the|soul.|
V:2
 d2 d2 c2 | (c2 B2) d2 | (d2 c2) B2 | (B2 A2) z2 | B2 B2 d2 | (g2 d2) B2 | (e2 d2) f2 | g4 B2 | %8
w: 2.~O for a|be- * a-|ti- * fic|sight~ _|Of our al-|migh- * ty|Fa- * ther's|throne! There|
[M:2/4] dd dd | ee ed | gd ea | g2 f2 | g4 | z2 z G | d2 c2 | B3 g | fe d^c | d3 B | cB cd | e3 d | %20
w: sits our Sa- vior,|crowned with light, Clothed|with a bo- dy|like our|own.|A-|do- ring|saints a-|round * him *|stand, And|heav'n- * ly *|powers be-|
 ed ef | g3 g | fe dc | B3 g | dc Bc | d3 c | BG Bd | c3 B | g2 f2 | e3 d/B/ | d>e dB | %31
w: fore * him *|fall; The|God * * shines|gra- cious|through * * the|man, And|sheds * bright *|glo- ries|on them|all, And *|sheds * * bright|
 g/f/e/f/ gc | B2 A2 | G4 |] %34
w: glo- * * * * ries|on them|all.|
V:3
 G,2 G,2 G,2 | G,4 G,2 | (G,2 F,2) G,2 | D,4 z2 | G,2 G,2 G,2 | D,4 G,2 | (C,2 D,2) D,2 | %7
w: 3.~~What joys un-|spea- ka-|ble * they|feel!|While to their|gol- den|harps * they|
 G,,4 G,2 |[M:2/4] G,G, G, G,/F,/ | E,E, E,F, | G,A, B,C | D2 D,2 | G,4 | %13
w: sing; And|e- cho from each *|heav'n- ly hill The|glo- rious tri- umph|of their|King.|
"^O     may  the      hap  –  py      day     draw         nigh,   When     we         shall" z4 | %14
w: |
 z4 | z4 | z4 | z4 | z4 |"^rise     to     realms     a    –  bove," z4 | z4 | z2 z G, | G,2 G,2 | %23
w: |||||||To|join the|
 G,2 G,2 | G,2 G,2 | G,3 F, | G,2 G,2 | A,3 G,/A,/ | B,2 B,2 | E,3 F, | G,2 G,2 | G,3 C | D2 D,2 | %33
w: mu- sic|of the|sky, And|ce- le-|brate re- *|dee- ming|love, And|ce- le-|brate re-|dee- ming|
 G,4 |] %34
w: love.|

